X:54
T:Tournora Pas Pls
M:6/8
L:1/8
N:Assez anime
N:La Bourre 4th edition 1929, page 60
Z:Steve Mansfield www.lesession.co.uk May 2012
K:Gm
B | c2 e d2 c | B2 B d2 d | d2 f f e d |
c2 e d2 c | B3 - B2 B | d2 c B2 A | !fermata! B3 !fermata! c3 |]

